X:1
T:Hoegaardse wals
C:Herman Dewit
O:Vlaanderen
Z:Bart Vanhaverbeke 
L:1/8
M:3/4
K:D
D2 E2 || F3 D FD | F2 E2 F2 | G3 E GE | G2 F2 G2 | A3 F D2 |
|1 G4 F2 | E2 F2 D2 | E2 D2 E2 :|2 G2 F2 E2 | D6 | D2|]
F2 A2 || d3 G dG | d2 A2 FD | d3 G dG | d2 A2 FD |
G3 B AG | F3 A GF | E3 G FE |1 F3 E D2 :|2 D2 |]
